assets/icons/qvision/smoke_free.svg

<svg xmlns="http://www.w3.org/2000/svg" height="24" viewBox="0 0 24 24" width="24"><path d="M0 0h24v24H0z" fill="none"/><path d="M2 6l6.99 7H2v3h9.99l7 7 1.26-1.25-17-17zm18.5 7H22v3h-1.5zM18 13h1.5v3H18zm.85-8.12c.62-.61 1-1.45 1-2.38h-1.5c0 1.02-.83 1.85-1.85 1.85v1.5c2.24 0 4 1.83 4 4.07V12H22V9.92c0-2.23-1.28-4.15-3.15-5.04zM14.5 8.7h1.53c1.05 0 1.97.74 1.97 2.05V12h1.5v-1.59c0-1.8-1.6-3.16-3.47-3.16H14.5c-1.02 0-1.85-.98-1.85-2s.83-1.75 1.85-1.75V2c-1.85 0-3.35 1.5-3.35 3.35s1.5 3.35 3.35 3.35zm2.5 7.23V13h-2.93z"/></svg>

<svg width="24" height="24" viewBox="0 0 24 24" fill="none" xmlns="http://www.w3.org/2000/svg">
<g clip-path="url(#clip0_147_6283)">
<path d="M2 6L8.99 13H2V16H11.99L18.99 23L20.25 21.75L3.25 4.75L2 6ZM20.5 13H22V16H20.5V13ZM18 13H19.5V16H18V13ZM18.85 4.88C19.47 4.27 19.85 3.43 19.85 2.5H18.35C18.35 3.52 17.52 4.35 16.5 4.35V5.85C18.74 5.85 20.5 7.68 20.5 9.92V12H22V9.92C22 7.69 20.72 5.77 18.85 4.88ZM14.5 8.7H16.03C17.08 8.7 18 9.44 18 10.75V12H19.5V10.41C19.5 8.61 17.9 7.25 16.03 7.25H14.5C13.48 7.25 12.65 6.27 12.65 5.25C12.65 4.23 13.48 3.5 14.5 3.5V2C12.65 2 11.15 3.5 11.15 5.35C11.15 7.2 12.65 8.7 14.5 8.7ZM17 15.93V13H14.07L17 15.93Z" fill="#323232"/>
</g>
<defs>
<clipPath id="clip0_147_6283">
<rect width="24" height="24" fill="white"/>
</clipPath>
</defs>
</svg>
